X:33
T:GB/7c/33 Seven Jolly Gipsies
%%VWML:GB-7c-33-0
F:http://www.vwml.org/record/GB/7c/33
C:Transcribed by Simon Furey and Lewis Jones
L:1/4
M:4/4
I:linebreak $
K:G
G/A/B/c/ d d | c A G2 | G B/c/ d d | g3/2 f/ d2 |$ d d g g | =f d/c/ =F A | B A/G/ d d | B G G2 |]

